!!!COM: Battista Guarini
!!!OTL: 5. MA. SE CON LA PIETÀ NON È IN TE SPENTA
!!!OMV: 5. MA. SE CON LA PIETÀ NON È IN TE SPENTA
**kern
*I"Canto
*I'C.
*clefG2
*k[b-]
*F:
*M4/4
*met(c)
=1
!LO:TX:b:t=--j
!LO:TX:b:t=EDIZIONI
!LO:TX:b:t=UT ORPHEUS
!LO:TX:b:t=ODH 19A
2.f
8fL
8fJ
=2
[4B- [4f [4b- [4dd
4B-_ 4f_ 4b-_ 4dd_
4B-] 4f] 4b-] 4dd]
8B-L [8f 8b- 8dd
8B-J 8f] 8b- 8dd
=3
4B- 4f 4b- 4dd
4B- 4f 4b- 4dd
4B- 4f 4b- 4dd
4B- 4f 4b- 4dd
=4
[8B-L [8f [8b- [8dd
8B-J] 8f] 8b-] 8dd]
[4B- 4f 4b- 4dd
4E-X 4B-] 4e-X 4g 4b-
4E-X [4G 4e-X 4g 4b-
=5
8E-XL 8G] 8e-X 8g 8b-
8E-XJ 8A 8e-X 8g 8b-
[8E-XL 8B- [8e-X [8g [8b-
8E-J] 8G 8e-] 8g] 8b-]
4C [4c 4e-X 4g 4cc
[8FL 8c] [8f [8a [8cc
8FJ] 8c 8f] 8a] 8cc]
!!linebreak:original
=6
[4BB- [4B- [4f [4b- [4dd
8BB-L] 8B-_ 8f] 8b-] 8dd]
8B-J] 8f 8b- 8dd
[8E-XL [8B- [8g 8b- [8ee-X
8E-J] 8B-] 8g] 8ee-]
4E-X 4G 4g [4b- 4ee-X
=7
[4F [4c [4f 4b-] [4cc
4F] 4c] 4f] 4a 4cc]
2B- 2d 2f 2b-
=8
[4g
4G 4g] 4b- 4dd
4G 4g 4b- 4dd
4G 4g 4b- 4dd
=9
2E-X 2b- 2ee-X 2gg
[4E-X
4E-] 4e-X 4g 4b-
=10
1C 1e-X 1g 1cc
=11
[4D [4d [4f#X [4a
4D_ 4d_ 4f#_ 4a_
4D_ 4d_ 4f#_ 4a_
4D] 4d] 4f#] 4a]
!!pagebreak:original
=12
[4B-
4B-] [4b- [4dd
[8B-L 8b-] 8dd]
8B-J_ 8cc 8ee
4B-] 4dd 4ff
=13
[2G 2ee 2gg
2G] 2dd 2ff
=14
[4A 4cc#X 4ee
4.A_ 4.ff 4.aa
8A_ 8ee 8gg
4A_ 4dd 4ff
=15
4A_ [4cc#X [4ee
4A] 4cc#] 4ee]
[4dd
[4B- [4d [4b- 4dd]
=16
8B-L] 8d] 8b-]
8cJ 8e 8a
4d 4f 4bn
2e 2g [2cc
=17
[4d [4f 4cc]
4d] 4f] 4bn
4c 4e 4cc
[4d [4f [4b-X
!!linebreak:original
=18
8dL] 8f] 8b-]
8cJ 8e 8a
4B- 4d 4g
2A 2c 2f#X
=19
[4G [4d [4g
4G_ 4d_ 4g_ [4b-
8GL_ 8d_ 8g_ 8b-]
8GJ_ 8d_ 8g_ 8cc
8GL_ 8d_ 8g_ [8dd
8GJ] 8d] 8g_ 8a 8dd]
=20
8gL] [8bn [8ee
8fJ 8b] 8ee_
4e [4cc 4ee]
4f 4cc] [4dd
4g 4bn 4dd]
=21
4c 4cc
4.f 4.a 4.dd
8e 8g 8cc
4g 4b-
=22
[4d 4g [4a
4d] 4f#X 4a]
2G [2d 2g
=23
2G 2d] 2g 2bn
4G 4d 4g 4b
4G 4d 4g 4bn 4dd
!!pagebreak:original
=24
[4.G [4.d [4.g [4.bn 4.dd
8G_ 8d_ 8g] 8b_ 8dd
4G] 4d] [4g 4b] 4dd
4c 4g] 4cc 4ee
=25
[2B- 2f 2b- [2dd 2ff
4B-] [4d [4f [4b- 4dd]
4B- 4d] 4f] 4b-] 4dd
=26
2E-X 2B- 2g 2b- 2ee-X
2D 2B- 2f 2b- 2ff
=27
2F 2c 2f 2a 2cc
4F [4c 4f 4a 4cc
4F 4c] 4f 4a 4cc
=28
4F 4f 4a 4cc
4.F 4.f 4.a 4.cc
8E-X 8g 8cc
4F 4f 4a 4cc
=29
[2BB- 2d [2f [2b- [2dd
4BB-_ 4d 4f_ 4b-_ 4dd_
4BB-_ 4d 4f_ 4b-_ 4dd_
!!linebreak:original
=30
2BB-] 2d 2f] 2b-] 2dd]
[8gL
8gJ_ 8b- 8dd
8gL_ 8a 8cc
8gJ] 8b-
=31
[4f 4a 4cc
4f_ 4a 4cc
8fL_
8fJ] 8dd 8ff
[8fL 8cc 8ee
8fJ] 8b- 8dd
=32
[4c 4cc 4ee
4c] 4cc 4ee
[8AL
8AJ_ 8ff 8aa
8AL_ 8ee 8gg
8AJ] 8dd 8ff
=33
[4c 4ee 4gg
4c] 4ee 4gg
[4c
4c] 4a 4cc
=34
4c 4a 4cc
4c [4g 4b-
[4c 4g] [4a
4c] [4f 4a]
!!pagebreak:original
=35
4B- 4f] [4g
4c 4e 4g]
2f
=36
2A 2c#X 2e
4A 4c#X 4e
4A 4c#X 4e
=37
2A 2c#X 2e
[8dL [8f
8dJ_ 8f_ 8dd
8dL_ 8f_ 8ccn
8dJ] 8f] 8bn
=38
[4c [4e [4g 4cc
4c_ 4e_ 4g] 4cc
4c_ 4e]
4c] 4e
=39
2F 2A 2f
[8EL [8c [8g
8EJ_ 8c_ 8g_ 8ee
8EL_ 8c_ 8g_ 8dd
8EJ] 8c] 8g] 8cc
=40
[4G [4Bn [4d 4dd
4G] 4B] 4d] 4dd
4G 4Bn 4d
4G 4Bn 4d
!!linebreak:original
=41
4G 4Bn 4d
[4G [4Bn [4d
8GL] 8B] 8d]
8FJ 8A 8d 8ff
[8GL [8Bn [8d 8ee
8GJ] 8B] 8d] 8dd
=42
[4C [4c 4ee
4C] 4c] 4ee
4r
4a 4cc
=43
4a 4cc
[4g 4b-
8gL_ [8a
8dJ 8g] 8a_
8cL [8f 8a_
8B-J 8f_ 8a]
=44
4c 4f] [4g
4c 4e 4g]
[8fL
8dJ 8f_
8cL 8e 8f_
8B-J 8d 8f]
=45
4c 4e
[8cL [8e [8a
8cJ] 8e] 8a]
4c 4e 4a
4B- 4d [4g
!!pagebreak:original
=46
[8AL [8c 8g_
8AJ_ 8c_ 8g] 8a
8AL_ 8c_ [8f 8g
8AJ] 8c] 8f_
[8GL [8B- 8f_ [8g
8GJ_ 8B-_ 8f] 8g] 8dd
8GL_ 8B-_ [8e [8g 8cc
8GJ] 8B-] 8e] 8g] 8b-
=47
[4F [4A [4f 4cc
4F] 4A] 4f] 4cc
8r
8d 8dd 8ff
8AL 8cc 8ee
8dJ 8b- 8dd
=48
4c 4cc 4ee
4c 4cc 4ee
8r
8F 8c 8ff 8aa
8CL 8c 8e 8ee 8gg
8DJ 8A 8f 8dd 8ff
=49
4C 4c 4e 4ee 4gg
[8CL [8c [8e 8ee 8gg
8CJ_ 8c_ 8e_ 8ee 8gg
4C] 4c] 4e] 4ee 4gg
4D 4A 4f [4dd 4ff
=50
4E 4c 4g 4dd] [4ee
4F 4c 4a [4cc 4ee]
[4G [4d [4g 4cc] [4dd
8GL] 8d] 8g] [8bn 8dd_
8GJ 8d 8g 8b] 8dd]
!!linebreak:original
=51
[2C [2e 2g [2cc
4C] 4e] 4cc]
4F 4f 4a 4cc
=52
4F 4f 4a 4cc
4F 4f 4a 4cc
2F 2f 2a 2cc
=53
4F 4f 4a 4cc
4F 4f 4a 4cc
4.A 4.e 4.a 4.cc#X
8A 8e 8a 8cc#
=54
4A 4e 4a 4cc#X
4B- 4d 4g 4dd
2A 2e 2a 2cc#X
=55
[4G [4d [4g [4dd
4G_ 4B- 4d_ 4g_ 4dd_
4G_ 4B- 4d_ 4g_ 4dd_
4G_ 4B- 4d] 4g_ 4dd_
=56
2G_ 2B- 2g_ 2dd]
4G_ 4B- 4g_
4G] 4B- 4g] [4b- [4dd
!!pagebreak:original
=57
[4d 4b-] 4dd]
8dL] 8a 8cc
8dJ 8g 8b-
4d 4f#X 4a
4e-X 4g
=58
[2d 2f#X 2a
2d] 2f#X 2a
=59
[4c 4e 4g
2c_ 2f 2a
4c_ [4e [4g
=60
8cL_ 8e] 8g]
8cJ_ 8e 8g
4c_ 4f 4a
2c] 2e 2g
=61
[4f
4f] [4ff
[4F [4f [4a 4ff]
8FL_ 8f_ 8a_ 8cc
8FJ_ 8f_ 8a_ 8dd
=62
4F] 4f] 4a_
8CL 8e 8g 8a_
8DJ 8d 8f 8a_
4A 4c#X 4e 4a]
4B- 4d 4g
!!linebreak:original
=63
[2A 2c#X 2e 2a
2A] 2c#X 2e 2a
=64
[4A 4c#X 4e
2A_ 2d 2f
4A_ [4c#X [4e
=65
8AL_ 8c 8e]
8AJ_ 8c 8e
4A_ 4d 4f
2A] 2c#X 2e
=66
[4d 4f#X 4a
2d_ 2g 2b-
4d_ [4f#X [4a
=67
8dL_ 8f#X] 8a]
8dJ_ 8f#X 8a
4d_ 4g 4b-
2d] 2f#X 2a
=68
1G; 1g
=||
*-
!!!YEM: UTORPHEUS EDIZIONI 2(KJ3 EDIZIONI 2003 UT ORPHEUS EDIZIONI 2003 © UT ORPHEUS 2003
